packages/foundations/assets/icons/functional/images/transportation/taxi_inverted.svg

<svg xmlns="http://www.w3.org/2000/svg" width="32" height="32" fill="none"><path fill="#1A1C1F" fill-rule="evenodd" d="M12.693 3.633a1 1 0 0 0-.258.17c-.412.385-.36.987.116 1.339.149.11.185.111 3.444.111h3.293l.202-.153c.465-.355.465-.992 0-1.346l-.202-.154-3.23-.011c-2.074-.006-3.279.009-3.365.044M9.12 6.617c-.8.105-1.715.766-2.076 1.501-.126.255-.373 1.149-.921 3.339l-.749 2.991-1.398.016-1.398.016-.201.154c-.305.232-.35.397-.35 1.267 0 .649.015.79.106.979.21.433.522.56 1.382.56l.618.001.013.573c.007.315.111 1.593.231 2.839.236 2.452.3 2.78.646 3.32.201.316.611.689.92.839l.235.113.018 1.264c.017 1.235.02 1.27.151 1.504a.97.97 0 0 0 .374.373c.223.124.298.135 1.118.153 1.078.024 1.363-.029 1.651-.303.121-.116.229-.283.264-.409.033-.121.059-.65.059-1.217v-1.003l.227.029c1.648.211 6.49.313 9.08.191 1.183-.055 2.535-.144 2.862-.187l.195-.026.018 1.079c.018 1.038.024 1.09.152 1.32a.97.97 0 0 0 .374.373c.223.124.298.135 1.118.153 1.078.024 1.363-.029 1.651-.303.121-.116.229-.283.264-.409.034-.125.06-.71.061-1.414l.002-1.2.265-.128c.341-.166.872-.72 1.037-1.082.072-.156.166-.427.211-.603.105-.411.51-4.635.51-5.314v-.516l.737-.018c.696-.018.75-.027.954-.162.367-.243.442-.476.442-1.372 0-.864-.048-1.034-.363-1.274l-.188-.144-1.391-.027-1.391-.026-.752-2.987c-.486-1.935-.804-3.094-.9-3.291-.313-.637-.971-1.203-1.677-1.443l-.351-.119-6.747-.008c-3.71-.004-6.902.013-7.093.038m13.84 1.791c.267.144.425.311.529.561.072.171 1.364 5.325 1.364 5.439 0 .025-3.984.045-8.853.045s-8.853-.012-8.853-.027c0-.149 1.362-5.42 1.44-5.573.115-.226.34-.407.634-.513.154-.056 1.501-.067 6.859-.058l6.667.011zM9.505 18.573c.375.211.573.733.442 1.164a1.08 1.08 0 0 1-.527.588c-.194.087-.363.099-1.416.1-1.116.002-1.213-.006-1.433-.113-.567-.274-.731-1.077-.314-1.532.293-.32.324-.326 1.736-.326 1.247-.001 1.308.004 1.512.119m16 0c.375.211.573.733.442 1.164a1.08 1.08 0 0 1-.527.588c-.194.087-.363.099-1.416.1-1.116.002-1.213-.006-1.433-.113-.567-.274-.731-1.077-.314-1.532.293-.32.324-.326 1.736-.326 1.247-.001 1.308.004 1.512.119m-6.24.896c.407.113.735.541.735.958s-.328.844-.735.957c-.282.079-6.261.075-6.544-.003-.717-.2-.939-1.175-.384-1.692.286-.268.322-.271 3.636-.273 1.971-.001 3.166.018 3.292.053"/></svg>

<svg width="32" height="32" viewBox="0 0 32 32" fill="none" xmlns="http://www.w3.org/2000/svg"><path d="M12.693 3.633 C 12.620 3.662,12.504 3.739,12.435 3.803 C 12.023 4.188,12.075 4.790,12.551 5.142 C 12.700 5.252,12.736 5.253,15.995 5.253 L 19.288 5.253 19.490 5.100 C 19.955 4.745,19.955 4.108,19.490 3.754 L 19.288 3.600 16.058 3.589 C 13.984 3.583,12.779 3.598,12.693 3.633 M9.120 6.617 C 8.320 6.722,7.405 7.383,7.044 8.118 C 6.918 8.373,6.671 9.267,6.123 11.457 L 5.374 14.448 3.976 14.464 L 2.578 14.480 2.377 14.634 C 2.072 14.866,2.027 15.031,2.027 15.901 C 2.027 16.550,2.042 16.691,2.133 16.880 C 2.343 17.313,2.655 17.440,3.515 17.440 L 4.133 17.441 4.146 18.014 C 4.153 18.329,4.257 19.607,4.377 20.853 C 4.613 23.305,4.677 23.633,5.023 24.173 C 5.224 24.489,5.634 24.862,5.943 25.012 L 6.178 25.125 6.196 26.389 C 6.213 27.624,6.216 27.659,6.347 27.893 C 6.436 28.050,6.563 28.178,6.721 28.266 C 6.944 28.390,7.019 28.401,7.839 28.419 C 8.917 28.443,9.202 28.390,9.490 28.116 C 9.611 28.000,9.719 27.833,9.754 27.707 C 9.787 27.586,9.813 27.057,9.813 26.490 L 9.813 25.487 10.040 25.516 C 11.688 25.727,16.530 25.829,19.120 25.707 C 20.303 25.652,21.655 25.563,21.982 25.520 L 22.177 25.494 22.195 26.573 C 22.213 27.611,22.219 27.663,22.347 27.893 C 22.436 28.050,22.563 28.178,22.721 28.266 C 22.944 28.390,23.019 28.401,23.839 28.419 C 24.917 28.443,25.202 28.390,25.490 28.116 C 25.611 28.000,25.719 27.833,25.754 27.707 C 25.788 27.582,25.814 26.997,25.815 26.293 L 25.817 25.093 26.082 24.965 C 26.423 24.799,26.954 24.245,27.119 23.883 C 27.191 23.727,27.285 23.456,27.330 23.280 C 27.435 22.869,27.840 18.645,27.840 17.966 L 27.840 17.450 28.577 17.432 C 29.273 17.414,29.327 17.405,29.531 17.270 C 29.898 17.027,29.973 16.794,29.973 15.898 C 29.973 15.034,29.925 14.864,29.610 14.624 L 29.422 14.480 28.031 14.453 L 26.640 14.427 25.888 11.440 C 25.402 9.505,25.084 8.346,24.988 8.149 C 24.675 7.512,24.017 6.946,23.311 6.706 L 22.960 6.587 16.213 6.579 C 12.503 6.575,9.311 6.592,9.120 6.617 M22.960 8.408 C 23.227 8.552,23.385 8.719,23.489 8.969 C 23.561 9.140,24.853 14.294,24.853 14.408 C 24.853 14.433,20.869 14.453,16.000 14.453 C 11.131 14.453,7.147 14.441,7.147 14.426 C 7.147 14.277,8.509 9.006,8.587 8.853 C 8.702 8.627,8.927 8.446,9.221 8.340 C 9.375 8.284,10.722 8.273,16.080 8.282 L 22.747 8.293 22.960 8.408 M9.505 18.573 C 9.880 18.784,10.078 19.306,9.947 19.737 C 9.878 19.963,9.646 20.222,9.420 20.325 C 9.226 20.412,9.057 20.424,8.004 20.425 C 6.888 20.427,6.791 20.419,6.571 20.312 C 6.004 20.038,5.840 19.235,6.257 18.780 C 6.550 18.460,6.581 18.454,7.993 18.454 C 9.240 18.453,9.301 18.458,9.505 18.573 M25.505 18.573 C 25.880 18.784,26.078 19.306,25.947 19.737 C 25.878 19.963,25.646 20.222,25.420 20.325 C 25.226 20.412,25.057 20.424,24.004 20.425 C 22.888 20.427,22.791 20.419,22.571 20.312 C 22.004 20.038,21.840 19.235,22.257 18.780 C 22.550 18.460,22.581 18.454,23.993 18.454 C 25.240 18.453,25.301 18.458,25.505 18.573 M19.265 19.469 C 19.672 19.582,20.000 20.010,20.000 20.427 C 20.000 20.844,19.672 21.271,19.265 21.384 C 18.983 21.463,13.004 21.459,12.721 21.381 C 12.004 21.181,11.782 20.206,12.337 19.689 C 12.623 19.421,12.659 19.418,15.973 19.416 C 17.944 19.415,19.139 19.434,19.265 19.469 " fill="#1A1C1F" stroke="none" fill-rule="evenodd"></path></svg>
